src/assets/icons/star40x40.svg

<svg xmlns="http://www.w3.org/2000/svg" xmlns:xlink="http://www.w3.org/1999/xlink" width="40" zoomAndPan="magnify" viewBox="0 0 30 30.000001" height="40" preserveAspectRatio="xMidYMid meet" version="1.0"><defs><clipPath id="d887194a2a"><path d="M 0.484375 0 L 29.515625 0 L 29.515625 29.03125 L 0.484375 29.03125 Z M 0.484375 0 " clip-rule="nonzero"/></clipPath></defs><g clip-path="url(#d887194a2a)"><path fill="#ffde00" d="M 15.355469 7.769531 C 15.445312 8.585938 15.667969 9.363281 16.023438 10.105469 C 16.378906 10.847656 16.847656 11.507812 17.425781 12.089844 C 18.007812 12.671875 18.671875 13.140625 19.410156 13.496094 C 20.152344 13.851562 20.933594 14.074219 21.75 14.164062 C 23.710938 14.378906 26.246094 14.515625 29.515625 14.515625 C 26.246094 14.515625 23.710938 14.65625 21.75 14.871094 C 20.933594 14.960938 20.152344 15.183594 19.410156 15.539062 C 18.671875 15.894531 18.007812 16.363281 17.425781 16.941406 C 16.847656 17.523438 16.378906 18.1875 16.023438 18.925781 C 15.667969 19.667969 15.445312 20.449219 15.355469 21.265625 C 15.140625 23.230469 15 25.761719 15 29.035156 C 15 25.761719 14.863281 23.230469 14.648438 21.265625 C 14.558594 20.449219 14.335938 19.667969 13.980469 18.925781 C 13.625 18.1875 13.15625 17.523438 12.574219 16.941406 C 11.992188 16.363281 11.332031 15.894531 10.589844 15.539062 C 9.847656 15.183594 9.070312 14.960938 8.25 14.871094 C 6.289062 14.65625 3.753906 14.515625 0.484375 14.515625 C 3.753906 14.515625 6.289062 14.378906 8.25 14.164062 C 9.070312 14.074219 9.847656 13.851562 10.589844 13.496094 C 11.332031 13.140625 11.992188 12.671875 12.574219 12.089844 C 13.15625 11.507812 13.625 10.847656 13.980469 10.105469 C 14.335938 9.363281 14.558594 8.585938 14.648438 7.769531 C 14.863281 5.804688 15 3.269531 15 0 C 15 3.269531 15.140625 5.804688 15.355469 7.769531 Z M 15.355469 7.769531 " fill-opacity="1" fill-rule="nonzero"/></g></svg>

<svg xmlns="http://www.w3.org/2000/svg" width="40" height="40" viewBox="0 0 30 30"><defs><clipPath id="d887194a2a"><path d="M.484 0h29.032v29.031H.484Zm0 0"/></clipPath></defs><g clip-path="url(#d887194a2a)"><path fill="#ffde00" d="M15.355 7.77q.135 1.223.668 2.335a7.22 7.22 0 0 0 5.727 4.059c1.96.215 4.496.352 7.766.352-3.27 0-5.805.14-7.766.355a7.2 7.2 0 0 0-2.34.668 7.3 7.3 0 0 0-1.984 1.402 7.3 7.3 0 0 0-1.403 1.985 7.2 7.2 0 0 0-.668 2.34c-.214 1.964-.355 4.496-.355 7.77 0-3.274-.137-5.806-.352-7.77a7.2 7.2 0 0 0-2.074-4.325 7.23 7.23 0 0 0-4.324-2.07c-1.96-.215-4.496-.355-7.766-.355 3.27 0 5.805-.137 7.766-.352a7.2 7.2 0 0 0 2.34-.668 7.2 7.2 0 0 0 1.984-1.406 7.2 7.2 0 0 0 1.406-1.985q.534-1.113.668-2.335C14.863 5.805 15 3.27 15 0c0 3.27.14 5.805.355 7.77m0 0"/></g></svg>
